!!!COM: Palestrina, Giovanni Perluigi da
!!!OPR: Missa Repleatur os meum laude
!!!OMD: Credo
!!!OTL: Et in Spiritum
**kern	**kern	**kern	**kern	**kern
*Ibass	*Itenor	*Icalto	*Icalto	*Icant
!Bassus	!Tenor	!Altus 2	!Altus 1	!Cantus
*clefF4	*clefGv2	*clefG2	*clefG2	*clefG2
*k[]	*k[]	*k[]	*k[]	*k[]
*E:phr	*E:phr	*E:phr	*E:phr	*E:phr
*M4/2	*M4/2	*M4/2	*M4/2	*M4/2
=176	=176	=176	=176	=176
1r	1r	0r	1.A	0r
[1AA	[1E	.	.	.
.	.	.	2A	.
=177	=177	=177	=177	=177
2AA]	2E]	0r	2c	0r
2AA	2E	.	2c	.
2E	2G	.	1B	.
2E	2G	.	.	.
=178	=178	=178	=178	=178
0D	0F	1r	2.d	0r
.	.	.	4d	.
.	.	[1A	2d	.
.	.	.	2d	.
=179	=179	=179	=179	=179
2r	2.A	2A]	1c	1.e
2.AA	.	2A	.	.
.	4A	.	.	.
.	2A	2c	2r	.
4BB	.	.	.	.
4C	2A	2c	[2e	2e
4D	.	.	.	.
=180	=180	=180	=180	=180
2.E	0G	0B	2e]	1.g
.	.	.	2e	.
4F	.	.	.	.
1G	.	.	2d	.
.	.	.	2G	2g
=181	=181	=181	=181	=181
0D	0r	2.d	1A	1f
.	.	4d	.	.
.	.	2d	2.f	2.a
.	.	2d	.	.
.	.	.	4f	4a
=182	=182	=182	=182	=182
2.F	1r	0c	2f	2a
.	.	.	2f	2a
4F	.	.	.	.
2C	2r	.	1e	1g
2E	2G	.	.	.
=183	=183	=183	=183	=183
2F	1A	0r	1c	0r
2A	.	.	.	.
2.G	2B	.	1d	.
.	2B	.	.	.
4F	.	.	.	.
=184	=184	=184	=184	=184
1E	2c	1r	2e	1g
.	2.B	.	2e	.
2D	.	2r	2f	1a
.	4A	.	.	.
2C	[2A	2c	2e	.
=185	=185	=185	=185	=185
1BB	4A]	1d	2r	2b
.	4G#	.	.	.
.	4G#	.	2d	2b
.	4F#	.	.	.
1AA	1A	2e	4c	2.cc
.	.	.	4B	.
.	.	2e	4A	.
.	.	.	4G	4b
=186	=186	=186	=186	=186
0r	0r	2f	2F	2a
.	.	2.e	2c	2.g
.	.	.	2G	.
.	.	4d	.	4f
.	.	[2d	2B-	2d
=187	=187	=187	=187	=187
1r	0r	4d]	1A	1e
.	.	4c#	.	.
.	.	4c#	.	.
.	.	4B	.	.
[1D	.	1d	2r	2.f
.	.	.	2d	.
.	.	.	.	4g
=188	=188	=188	=188	=188
2D]	1.A	0r	2d	0a
2D	.	.	1f	.
1F	.	.	.	.
.	2A	.	2c	.
=189	=189	=189	=189	=189
2E	2c	0r	2e	0r
1G	2B	.	4d	.
.	.	.	4c	.
.	2.d	.	2B	.
2F#	.	.	2A	.
.	4c	.	.	.
=190	=190	=190	=190	=190
1G	2B	1.d	2G	0r
.	2B	.	1g	.
1D	2A	.	.	.
.	[2d	2d	[2f	.
=191	=191	=191	=191	=191
1A	2d]	2f	4f]	1r
.	.	.	4e	.
.	1c	2e	2c	.
1G	.	2.g	1d	2r
.	2B	.	.	[2g
.	.	4f	.	.
=192	=192	=192	=192	=192
1C	1c	2e	2c	2g]
.	.	2e	1G	2g
1r	1r	2d	.	1b-
.	.	[2g	2G	.
=193	=193	=193	=193	=193
0r	0r	2g]	1d	2a
.	.	1f	.	2f
.	.	.	2c	2g
.	.	2e	2c	2g
=194	=194	=194	=194	=194
1.F	2r	1f	2A	1a
.	1A	.	2d	.
.	.	1r	1c	2r
2E	2G	.	.	[2e
=195	=195	=195	=195	=195
2.A	2.c	0r	0r	2e]
.	.	.	.	2c
4G	4B	.	.	.
2F	2A	.	.	2f
2E	2G	.	.	2g
=196	=196	=196	=196	=196
1D	1F	2r	1r	1a
.	.	1d	.	.
1AA	1E	.	2r	2a
.	.	2c	2A	2a
=197	=197	=197	=197	=197
0r	0r	2.f	2d	2a
.	.	.	2d	2a
.	.	4e	.	.
.	.	2d	2f	2b-
.	.	2c	2e	[2a
=198	=198	=198	=198	=198
1r	2r	1B	2d	2a]
.	1E	.	2e	2g#
[1AA	.	1A	2r	1a
.	2E	.	[2c	.
=199	=199	=199	=199	=199
2AA]	2A	0r	2c]	1r
2AA	2A	.	2c	.
2E	1G#	.	2B	2r
2E	.	.	2B	[2e
=200	=200	=200	=200	=200
1AA	2.A	2r	2.c	2e]
.	.	1A	.	2e
.	8G	.	4d	.
.	8F	.	.	.
2C	2E	.	2e	2a
2D	2F	2A	2d	2a
=201	=201	=201	=201	=201
1BB	1D	2d	0r	1g#
.	.	2d	.	.
1AA	2E	1c#	.	2a
.	2A	.	.	2e
=202	=202	=202	=202	=202
1D	2A	2.d	2r	2.f
.	2A	.	2d	.
.	.	8c	.	4g
.	.	8B-	.	.
2F	1d	2A	2d	2a
2G	.	2B-	2d	2g
=203	=203	=203	=203	=203
1E	2c#	1G	1g	0r
.	2c#	.	.	.
2D	1d	2A	2f#	.
2D	.	2d	2f#	.
=204	=204	=204	=204	=204
2G	1B	2d	2g	2r
2G	.	2d	2g	2g
1C	2.c	1g	2e	2g
.	.	.	2c	2g
.	4B	.	.	.
=205	=205	=205	=205	=205
0r	1A	2f#	2c	2cc
.	.	2f#	2c	2cc
.	1G	1g	2e	1b
.	.	.	2d	.
=206	=206	=206	=206	=206
0r	0r	1e	4c	2.cc
.	.	.	4B	.
.	.	.	4A	.
.	.	.	4G	4b
.	.	2.f	2F	2a
.	.	.	2F	[2cc
.	.	4e	.	.
=207	=207	=207	=207	=207
1r	0r	1d	2f	2cc]
.	.	.	2f	2b
1C	.	1c	4e	1cc
.	.	.	4d	.
.	.	.	4e	.
.	.	.	4f	.
=208	=208	=208	=208	=208
2E	2r	0r	1g	1b
2E	2G	.	.	.
1F	2A	.	2r	2a
.	2A	.	2c	2a
=209	=209	=209	=209	=209
1C	2.c	0r	2e	1g
.	.	.	2e	.
.	4B	.	.	.
2D	2A	.	2f	2r
2BB	2G	.	2d	2g
=210	=210	=210	=210	=210
1AA	1c	2r	2e	2a
.	.	2c	2f#	2a
1GG	1B	2d	2.g	2b
.	.	2d	.	[2dd
.	.	.	8f	.
.	.	.	8e	.
=211	=211	=211	=211	=211
0r	0r	2.f	4d	4dd]
.	.	.	4e	8cc
.	.	.	.	8b
.	.	.	1f	2a
.	.	4e	.	.
.	.	2d	.	2b
.	.	2c	2e	2cc
=212	=212	=212	=212	=212
1D	0r	1f	1d	4b
.	.	.	.	4a
.	.	.	.	2a
1E	.	1e	2r	2.g
.	.	.	2G	.
.	.	.	.	8f
.	.	.	.	8e
=213	=213	=213	=213	=213
2G	1r	0r	1B	2d
2G	.	.	.	2g
1G	2r	.	2d	1b
.	2G	.	2d	.
=214	=214	=214	=214	=214
1.F	1A	0r	1.f	2.cc
.	.	.	.	4b
.	2.c	.	.	2a
[2C	.	.	4e	2g
.	4B	.	4d	.
=215	=215	=215	=215	=215
4C]	2A	1r	1e	2cc
4D	.	.	.	.
2E	2G	.	.	2.b
1AA	2c	2r	1e	.
.	.	.	.	4a
.	2c	2c	.	[2a
=216	=216	=216	=216	=216
1r	1B	1d	2r	2a]
.	.	.	2d	2g#
[1D	[1A	2.f	2e	1a
.	.	.	[2f	.
.	.	4e	.	.
=217	=217	=217	=217	=217
2D]	1A]	2d	2f]	1r
2AA	.	2c	2e	.
1D	1r	2f	1d	1a
.	.	2f	.	.
=218	=218	=218	=218	=218
1C	0G	1e	0g	1cc
2r	.	[1d	.	1b
[2G	.	.	.	.
=219	=219	=219	=219	=219
2G]	1A	1d]	1r	1a
2F#	.	.	.	.
1G	1B	1r	1d	[1g
=220	=220	=220	=220	=220
1C	1G	0c	1e	1g]
2.F	2.A	.	[1f	1r
4F	4A	.	.	.
=221	=221	=221	=221	=221
2D	2A	1d	2f]	1r
2D	2A	.	2f	.
2.C	[1c	1e	2e	1g
.	.	.	2c	.
4BB	.	.	.	.
=222	=222	=222	=222	=222
1AA	2c]	1c	2e	1a
.	2c	.	2f#	.
1GG	2B	2.d	2g	1b
.	2B	.	[2G	.
.	.	4d	.	.
=223	=223	=223	=223	=223
1G	1B	2d	2G]	1g
.	.	2d	1d	.
1D	1A	[1f	.	2.a
.	.	.	2d	.
.	.	.	.	4a
=224	=224	=224	=224	=224
1F	0r	2f]	1c	2a
.	.	2f	.	2a
2C	.	2e	1c	2cc
2C	.	2e	.	2cc
=225	=225	=225	=225	=225
1E	1r	1e	2r	2b
.	.	.	2G	2b
2G	2r	1d	1B	1b
2G	2G	.	.	.
=226	=226	=226	=226	=226
1F	1A	0r	2.c	1a
.	.	.	4B	.
1C	2.c	.	2A	2r
.	.	.	2G	2c
.	4B	.	.	.
=227	=227	=227	=227	=227
0C	2A	1r	2.c	1e
.	2G	.	.	.
.	.	.	4d	.
.	1c	2r	1e	2g
.	.	2c	.	2g
=228	=228	=228	=228	=228
1GG	1B	1d	2d	1g
.	.	.	1d	.
1D	2.A	2.f	.	2a
.	.	.	4c	4f
.	4G	4e	4B	4g
=229	=229	=229	=229	=229
0r	2F	2d	2A	4a
.	.	.	.	4b
.	2E	2c	2G	2cc
.	1D	1f	1d	4b
.	.	.	.	4a
.	.	.	.	[2a
=230	=230	=230	=230	=230
2r	1E	1e	1B	2a]
2E	.	.	.	2g#
2.F	1r	2.d	1A	2a
.	.	.	.	2a
4E	.	4c	.	.
=231	=231	=231	=231	=231
2D	0r	2B	1r	2b
2C	.	2A	.	2cc
2BB	.	1G#	2r	2dd
2BB	.	.	[2d	2d
=232	=232	=232	=232	=232
2AA	0r	1A	2d]	2f
1A	.	.	2c	2e
.	.	1r	2.f	[1a
2D	.	.	.	.
.	.	.	4e	.
=233	=233	=233	=233	=233
2.F	2r	0r	2d	1a]
.	1A	.	2c	.
4E	.	.	.	.
2D	.	.	1B	2r
2E	2G	.	.	[2e
=234	=234	=234	=234	=234
2AA	2.c	0r	2.A	2e]
2.F	.	.	.	2c
.	4B	.	4B	.
.	2A	.	1c	2f
4E	.	.	.	.
2C	2G	.	.	2e
=235	=235	=235	=235	=235
1D	1F	2r	1A	4d
.	.	.	.	4e
.	.	1d	.	4f
.	.	.	.	4g
1AA	1E	.	2r	4a
.	.	.	.	4b
.	.	2c	[2A	[2cc
=236	=236	=236	=236	=236
1r	0r	2.f	2A]	4cc]
.	.	.	.	4a
.	.	.	2F	2cc
.	.	4e	.	.
2r	.	2d	2G	2b
[2A	.	2c	2A	2a
=237	=237	=237	=237	=237
2A]	1r	1B	1E	2b
2G	.	.	.	2.e
2.c	2r	1A	2.e	.
.	.	.	.	4c
.	[2A	.	.	[2cc
4B	.	.	8d	.
.	.	.	8e	.
=238	=238	=238	=238	=238
2A	2A]	0r	4f	2cc]
.	.	.	4e	.
2G	2B	.	1e	2.b
1F	2c	.	.	.
.	.	.	.	4a
.	2A	.	2d	[2a
=239	=239	=239	=239	=239
1E	1B	1r	2.e	2a]
.	.	.	.	2g#
.	.	.	4d	.
2r	1A	2r	2c	[1a
[2D	.	[2d	[2f	.
=240	=240	=240	=240	=240
2D]	2r	2d]	2f]	1a]
2C	1A	2e	2e	.
2D	.	2f	1d	1r
2BB	2G	2d	.	.
=241	=241	=241	=241	=241
1AA	1c	1e	1r	2r
.	.	.	.	1a
1r	1B	1d	2r	.
.	.	.	2d	2g
=242	=242	=242	=242	=242
0r	2A	2r	2e	2cc
.	2G	1d	2g	2b
.	1A	.	2f	1a
.	.	2c	2e	.
=243	=243	=243	=243	=243
0r	1D	1f	2.d	2r
.	.	.	.	1a
.	.	.	4c	.
.	[1E	[1e	1B	.
.	.	.	.	2g
=244	=244	=244	=244	=244
1.AA	1E]	0e]	2A	1.cc
.	.	.	2c	.
.	2r	.	2A	.
2GG	[2G	.	2B	4b
.	.	.	.	4a
=245	=245	=245	=245	=245
2.C	2G]	[0e	1.c	1g
.	2E	.	.	.
4BB	.	.	.	.
2AA	2.e	.	.	2a
2GG#	.	.	2B	2b
.	4d	.	.	.
=246	=246	=246	=246	=246
[0AA	2c	0e]	2.A	1.cc
.	2B	.	.	.
.	.	.	4B	.
.	[1A	.	[1c	.
.	.	.	.	2b
=247	=247	=247	=247	=247
1AA]	1A]	[0e	1c]	1a
[1E	[1G#	.	[1B	[1b
=248	=248	=248	=248	=248
1E]	1G#]	1e]	1B]	1b]
==	==	==	==	==
*-	*-	*-	*-	*-
!!!CDT: 1525/^1526/-1594/2/2
!!!OCY: Italia
!!!AGN: Mass (Canonic)
!!!AST: renaissance, vocal
!!!ASW: Motet 1538 (Jacquet)
!!!PWK: Masses, Book 3
!!!RNB: Cadence finals: A,G,C
!!!YOR: Le Opere Complete, v. 6, p. 136
!!!YOO: Rome, Italy: Fratelli Scalera
!!!END: 1992//
!!!EED: John Miller
!!!YEC: Copyright 2000, John Miller
!!!YEN: United States of America
!!!YEM: Rights to all derivative electronic formats reserved.
!!!YEM: Refer to licensing agreement for further details.
!!!YEM: This file must be accompanied by the licensing agreement.
!!!YEM: A copy of the licensing agreement may be found at http://www.music-cog.ohio-state.edu/HumdrumDatabases/Palestrina/license.txt
!!!EMD: converted to Humdrum by Bret Aarden
